X: 1
T:Tanz
C:Johann Christoph Demantius
O:Germany
B:Demantius 1601
R:Allemande
Z:Transcribed by Frank Nordberg - http://www.musicaviva.com

M:C|
L:1/4
Q:1/2=120
K:Gdor
d=Bc&gt;_B|AFAB|cBA2|B&gt;cdB|
cd_e2|d&gt;cBA/G/|AGG^F|G4::GBAc|
B&gt;cd&gt;c|Bdd^c|dAd/c/B/A/|GcAd|
B_ecf|dgcA|B&gt;cdc/B/|AGG^F|G4:|

